Obsidian/actions/22s/node-segment-curve.svg

<svg height="22" viewBox="0 0 22 22" width="22" xmlns="http://www.w3.org/2000/svg"><path d="m11 0v2.3769531c-2.437.3656-4.4479063 1.2861-5.9414062 2.75-1.4927001 1.463-2.4450188 3.4470469-2.8242188 5.8730469h-2.234375v5h5v-5h-1.7519531c.3637-2.1737 1.2183656-3.8943563 2.5097656-5.1601562 1.2936-1.2679001 3.0476875-2.0973188 5.2421875-2.4492188v1.609375h5v-5z" fill="#bebebe" transform="translate(3 3)"/></svg>

<svg xmlns="http://www.w3.org/2000/svg" width="22" height="22" viewBox="0 0 22 22">
 <defs>
  <style id="current-color-scheme" type="text/css">
   .ColorScheme-Text { color:#bebebe; } .ColorScheme-Highlight { color:#4285f4; }
  </style>
 </defs>
 <path style="fill:currentColor" class="ColorScheme-Text" d="M 11 0 L 11 2.3769531 C 8.563 2.7425531 6.5520937 3.6630531 5.0585938 5.1269531 C 3.5658937 6.5899531 2.613575 8.574 2.234375 11 L 0 11 L 0 16 L 5 16 L 5 11 L 3.2480469 11 C 3.6117469 8.8263 4.4664125 7.1056437 5.7578125 5.8398438 C 7.0514125 4.5719437 8.8055 3.742525 11 3.390625 L 11 5 L 16 5 L 16 0 L 11 0 z" transform="translate(3 3)"/>
</svg>
